app/assets/images/icons/active/thumbs-up--line.svg

<?xml version="1.0" encoding="UTF-8" standalone="no"?>
<svg width="32px" height="232px" viewBox="0 0 32 232" version="1.1" xmlns="http://www.w3.org/2000/svg" xmlns:xlink="http://www.w3.org/1999/xlink" xmlns:sketch="http://www.bohemiancoding.com/sketch/ns">
    <title>thumbs-up--line</title>
    <description>Created with Sketch (http://www.bohemiancoding.com/sketch)</description>
    <defs></defs>
    <g id="Actions" stroke="none" stroke-width="1" fill="none" fill-rule="evenodd" sketch:type="MSPage">
        <path d="M14.3423147,125.514 C14.5881969,125.514 14.8945739,125.59 15.2751058,125.778 C16.9582278,126.606 17.3221724,129.206 17.4968268,130.282 C17.6724569,131.358 16.9494463,133.501 16.9494463,133.501 C16.9494463,133.501 18.8716204,133.481 20.5869412,133.481 C21.4446016,133.481 22.2505487,133.486 22.7393859,133.501 C24.3249356,135.523 23.1989514,137.416 22.0027151,137.416 L21.9724677,137.416 C22.3208008,137.59 22.6359593,138.165 22.6359593,138.165 C22.6359593,138.165 23.8926904,140.356 21.5675427,140.961 C21.601693,141.072 22.8437883,141.676 22.5979061,142.556 C22.3539754,143.435 20.8220904,143.969 20.8220904,143.969 C20.8220904,143.969 21.8163521,144.608 21.4172814,145.373 C21.0494339,146.076 19.7439166,146.531 19.7439166,146.531 C19.7439166,146.531 11.0111968,146.544 10.7282372,146.544 C10.5038209,146.544 10.112556,145.98 9.63640324,145.98 C9.50760782,145.98 9.37295806,146.021 9.23245397,146.128 L8.57481674,135.126 C8.57481674,135.126 8.73190813,135.134 8.88119373,135.134 C8.93193132,135.134 8.97974174,135.133 9.02267355,135.131 C10.9350904,135.038 13.1099767,131.403 13.2612138,130.416 C13.4017179,129.496 13.3714705,127.077 13.3714705,126.696 C13.3714705,126.401 13.5022173,125.514 14.3423147,125.514 M14.3423147,124 C12.7538379,124 11.894226,125.389 11.894226,126.696 L11.8961775,126.887 C11.9059347,129.03 11.8503185,129.862 11.8015323,130.182 C11.6034606,131.009 9.79544607,133.578 8.9524215,133.619 L8.88119373,133.621 C8.77386421,133.621 8.65970463,133.615 8.65092313,133.614 L7,133.528 L7.92400957,149 L9.66469921,147.683 C9.91350854,147.862 10.2667202,148.057 10.7282372,148.057 C11.0111968,148.057 19.7458681,148.044 19.7458681,148.044 L19.9897988,148.044 L20.2200694,147.963 C20.6542661,147.812 22.1207776,147.228 22.71792,146.089 C22.9969767,145.558 23.0438114,145.016 22.9335548,144.512 C23.4067804,144.132 23.8360984,143.626 24.0185586,142.971 C24.1873587,142.367 24.1307667,141.789 23.8507343,141.241 C24.0244129,141.014 24.1454026,140.786 24.2293148,140.579 C24.6537542,139.539 24.3893333,138.504 24.147354,137.896 C24.3444501,137.667 24.5152016,137.405 24.650827,137.118 C25.30944,135.706 25.0255046,134 23.8907389,132.553 L23.464348,132.01 L22.7832934,131.989 C22.3373881,131.974 21.5977901,131.967 20.5869412,131.967 C20.0112647,131.967 19.4121709,131.969 18.8696689,131.972 C18.98578,131.313 19.0482262,130.612 18.9545568,130.034 L18.9360181,129.921 C18.7272134,128.615 18.2344733,125.555 15.9142043,124.413 C15.3512122,124.135 14.8370062,124 14.3423147,124" id="thumbs-up-line--lp-blue" fill="#206FAC" sketch:type="MSShapeGroup"></path>
        <path d="M14.3423147,85.514 C14.5881969,85.514 14.8945739,85.59 15.2751058,85.778 C16.9582278,86.606 17.3221724,89.206 17.4968268,90.282 C17.6724569,91.358 16.9494463,93.501 16.9494463,93.501 C16.9494463,93.501 18.8716204,93.481 20.5869412,93.481 C21.4446016,93.481 22.2505487,93.486 22.7393859,93.501 C24.3249356,95.523 23.1989514,97.416 22.0027151,97.416 L21.9724677,97.416 C22.3208008,97.59 22.6359593,98.165 22.6359593,98.165 C22.6359593,98.165 23.8926904,100.356 21.5675427,100.961 C21.601693,101.072 22.8437883,101.676 22.5979061,102.556 C22.3539754,103.435 20.8220904,103.969 20.8220904,103.969 C20.8220904,103.969 21.8163521,104.608 21.4172814,105.373 C21.0494339,106.076 19.7439166,106.531 19.7439166,106.531 C19.7439166,106.531 11.0111968,106.544 10.7282372,106.544 C10.5038209,106.544 10.112556,105.98 9.63640324,105.98 C9.50760782,105.98 9.37295806,106.021 9.23245397,106.128 L8.57481674,95.126 C8.57481674,95.126 8.73190813,95.134 8.88119373,95.134 C8.93193132,95.134 8.97974174,95.133 9.02267355,95.131 C10.9350904,95.038 13.1099767,91.403 13.2612138,90.416 C13.4017179,89.496 13.3714705,87.077 13.3714705,86.696 C13.3714705,86.401 13.5022173,85.514 14.3423147,85.514 M14.3423147,84 C12.7538379,84 11.894226,85.389 11.894226,86.696 L11.8961775,86.887 C11.9059347,89.03 11.8503185,89.862 11.8015323,90.182 C11.6034606,91.009 9.79544607,93.578 8.9524215,93.619 L8.88119373,93.621 C8.77386421,93.621 8.65970463,93.615 8.65092313,93.614 L7,93.528 L7.92400957,109 L9.66469921,107.683 C9.91350854,107.862 10.2667202,108.057 10.7282372,108.057 C11.0111968,108.057 19.7458681,108.044 19.7458681,108.044 L19.9897988,108.044 L20.2200694,107.963 C20.6542661,107.812 22.1207776,107.228 22.71792,106.089 C22.9969767,105.558 23.0438114,105.016 22.9335548,104.512 C23.4067804,104.132 23.8360984,103.626 24.0185586,102.971 C24.1873587,102.367 24.1307667,101.789 23.8507343,101.241 C24.0244129,101.014 24.1454026,100.786 24.2293148,100.579 C24.6537542,99.539 24.3893333,98.504 24.147354,97.896 C24.3444501,97.667 24.5152016,97.405 24.650827,97.118 C25.30944,95.706 25.0255046,94 23.8907389,92.553 L23.464348,92.01 L22.7832934,91.989 C22.3373881,91.974 21.5977901,91.967 20.5869412,91.967 C20.0112647,91.967 19.4121709,91.969 18.8696689,91.972 C18.98578,91.313 19.0482262,90.612 18.9545568,90.034 L18.9360181,89.921 C18.7272134,88.615 18.2344733,85.555 15.9142043,84.413 C15.3512122,84.135 14.8370062,84 14.3423147,84" id="thumbs-up-line--white" fill="#FFFFFF" sketch:type="MSShapeGroup"></path>
        <path d="M14.3423147,45.514 C14.5881969,45.514 14.8945739,45.59 15.2751058,45.778 C16.9582278,46.606 17.3221724,49.206 17.4968268,50.282 C17.6724569,51.358 16.9494463,53.501 16.9494463,53.501 C16.9494463,53.501 18.8716204,53.481 20.5869412,53.481 C21.4446016,53.481 22.2505487,53.486 22.7393859,53.501 C24.3249356,55.523 23.1989514,57.416 22.0027151,57.416 L21.9724677,57.416 C22.3208008,57.59 22.6359593,58.165 22.6359593,58.165 C22.6359593,58.165 23.8926904,60.356 21.5675427,60.961 C21.601693,61.072 22.8437883,61.676 22.5979061,62.556 C22.3539754,63.435 20.8220904,63.969 20.8220904,63.969 C20.8220904,63.969 21.8163521,64.608 21.4172814,65.373 C21.0494339,66.076 19.7439166,66.531 19.7439166,66.531 C19.7439166,66.531 11.0111968,66.544 10.7282372,66.544 C10.5038209,66.544 10.112556,65.98 9.63640324,65.98 C9.50760782,65.98 9.37295806,66.021 9.23245397,66.128 L8.57481674,55.126 C8.57481674,55.126 8.73190813,55.134 8.88119373,55.134 C8.93193132,55.134 8.97974174,55.133 9.02267355,55.131 C10.9350904,55.038 13.1099767,51.403 13.2612138,50.416 C13.4017179,49.496 13.3714705,47.077 13.3714705,46.696 C13.3714705,46.401 13.5022173,45.514 14.3423147,45.514 M14.3423147,44 C12.7538379,44 11.894226,45.389 11.894226,46.696 L11.8961775,46.887 C11.9059347,49.03 11.8503185,49.862 11.8015323,50.182 C11.6034606,51.009 9.79544607,53.578 8.9524215,53.619 L8.88119373,53.621 C8.77386421,53.621 8.65970463,53.615 8.65092313,53.614 L7,53.528 L7.92400957,69 L9.66469921,67.683 C9.91350854,67.862 10.2667202,68.057 10.7282372,68.057 C11.0111968,68.057 19.7458681,68.044 19.7458681,68.044 L19.9897988,68.044 L20.2200694,67.963 C20.6542661,67.812 22.1207776,67.228 22.71792,66.089 C22.9969767,65.558 23.0438114,65.016 22.9335548,64.512 C23.4067804,64.132 23.8360984,63.626 24.0185586,62.971 C24.1873587,62.367 24.1307667,61.789 23.8507343,61.241 C24.0244129,61.014 24.1454026,60.786 24.2293148,60.579 C24.6537542,59.539 24.3893333,58.504 24.147354,57.896 C24.3444501,57.667 24.5152016,57.405 24.650827,57.118 C25.30944,55.706 25.0255046,54 23.8907389,52.553 L23.464348,52.01 L22.7832934,51.989 C22.3373881,51.974 21.5977901,51.967 20.5869412,51.967 C20.0112647,51.967 19.4121709,51.969 18.8696689,51.972 C18.98578,51.313 19.0482262,50.612 18.9545568,50.034 L18.9360181,49.921 C18.7272134,48.615 18.2344733,45.555 15.9142043,44.413 C15.3512122,44.135 14.8370062,44 14.3423147,44" id="thumbs-up-line--body-grey" fill="#67737B" sketch:type="MSShapeGroup"></path>
        <path d="M14.3423147,5.514 C14.5881969,5.514 14.8945739,5.59 15.2751058,5.778 C16.9582278,6.606 17.3221724,9.206 17.4968268,10.282 C17.6724569,11.358 16.9494463,13.501 16.9494463,13.501 C16.9494463,13.501 18.8716204,13.481 20.5869412,13.481 C21.4446016,13.481 22.2505487,13.486 22.7393859,13.501 C24.3249356,15.523 23.1989514,17.416 22.0027151,17.416 L21.9724677,17.416 C22.3208008,17.59 22.6359593,18.165 22.6359593,18.165 C22.6359593,18.165 23.8926904,20.356 21.5675427,20.961 C21.601693,21.072 22.8437883,21.676 22.5979061,22.556 C22.3539754,23.435 20.8220904,23.969 20.8220904,23.969 C20.8220904,23.969 21.8163521,24.608 21.4172814,25.373 C21.0494339,26.076 19.7439166,26.531 19.7439166,26.531 C19.7439166,26.531 11.0111968,26.544 10.7282372,26.544 C10.5038209,26.544 10.112556,25.98 9.63640324,25.98 C9.50760782,25.98 9.37295806,26.021 9.23245397,26.128 L8.57481674,15.126 C8.57481674,15.126 8.73190813,15.134 8.88119373,15.134 C8.93193132,15.134 8.97974174,15.133 9.02267355,15.131 C10.9350904,15.038 13.1099767,11.403 13.2612138,10.416 C13.4017179,9.496 13.3714705,7.077 13.3714705,6.696 C13.3714705,6.401 13.5022173,5.514 14.3423147,5.514 M14.3423147,4 C12.7538379,4 11.894226,5.389 11.894226,6.696 L11.8961775,6.887 C11.9059347,9.03 11.8503185,9.862 11.8015323,10.182 C11.6034606,11.009 9.79544607,13.578 8.9524215,13.619 L8.88119373,13.621 C8.77386421,13.621 8.65970463,13.615 8.65092313,13.614 L7,13.528 L7.92400957,29 L9.66469921,27.683 C9.91350854,27.862 10.2667202,28.057 10.7282372,28.057 C11.0111968,28.057 19.7458681,28.044 19.7458681,28.044 L19.9897988,28.044 L20.2200694,27.963 C20.6542661,27.812 22.1207776,27.228 22.71792,26.089 C22.9969767,25.558 23.0438114,25.016 22.9335548,24.512 C23.4067804,24.132 23.8360984,23.626 24.0185586,22.971 C24.1873587,22.367 24.1307667,21.789 23.8507343,21.241 C24.0244129,21.014 24.1454026,20.786 24.2293148,20.579 C24.6537542,19.539 24.3893333,18.504 24.147354,17.896 C24.3444501,17.667 24.5152016,17.405 24.650827,17.118 C25.30944,15.706 25.0255046,14 23.8907389,12.553 L23.464348,12.01 L22.7832934,11.989 C22.3373881,11.974 21.5977901,11.967 20.5869412,11.967 C20.0112647,11.967 19.4121709,11.969 18.8696689,11.972 C18.98578,11.313 19.0482262,10.612 18.9545568,10.034 L18.9360181,9.921 C18.7272134,8.615 18.2344733,5.555 15.9142043,4.413 C15.3512122,4.135 14.8370062,4 14.3423147,4" id="thumbs-up-line--title-grey" fill="#3A434E" sketch:type="MSShapeGroup"></path>
    </g>
</svg>

<svg width="32" height="232" viewBox="0 0 32 232" xmlns="http://www.w3.org/2000/svg" xmlns:sketch="http://www.bohemiancoding.com/sketch/ns"><title>thumbs-up--line</title><g sketch:type="MSPage" fill="none"><path d="M14.342 125.514c.246 0 .552.076.933.264 1.683.828 2.047 3.428 2.222 4.504.176 1.076-.547 3.219-.547 3.219s1.922-.02 3.637-.02c.858 0 1.664.005 2.152.02 1.586 2.022.46 3.915-.737 3.915h-.03c.348.174.663.749.663.749s1.257 2.191-1.068 2.796c.034.111 1.276.715 1.03 1.595-.244.879-1.776 1.413-1.776 1.413s.994.639.595 1.404c-.368.703-1.673 1.158-1.673 1.158l-9.016.013c-.224 0-.616-.564-1.092-.564-.129 0-.263.041-.404.148l-.658-11.002.306.008.141-.003c1.912-.093 4.087-3.728 4.239-4.715.141-.92.11-3.339.11-3.72 0-.295.131-1.182.971-1.182m0-1.514c-1.588 0-2.448 1.389-2.448 2.696l.002.191c.01 2.143-.046 2.975-.095 3.295-.198.827-2.006 3.396-2.849 3.437l-.071.002-.23-.007-1.651-.086.924 15.472 1.741-1.317c.249.179.602.374 1.064.374l9.018-.013h.244l.23-.081c.434-.151 1.901-.735 2.498-1.874.279-.531.326-1.073.216-1.577.473-.38.903-.886 1.085-1.541.169-.604.112-1.182-.168-1.73.174-.227.295-.455.379-.662.424-1.04.16-2.075-.082-2.683.197-.229.368-.491.503-.778.659-1.412.375-3.118-.76-4.565l-.426-.543-.681-.021c-.446-.015-1.186-.022-2.196-.022l-1.717.005c.116-.659.179-1.36.085-1.938l-.019-.113c-.209-1.306-.702-4.366-3.022-5.508-.563-.278-1.077-.413-1.572-.413" fill="#206FAC" sketch:type="MSShapeGroup"/><path d="M14.342 85.514c.246 0 .552.076.933.264 1.683.828 2.047 3.428 2.222 4.504.176 1.076-.547 3.219-.547 3.219s1.922-.02 3.637-.02c.858 0 1.664.005 2.152.02 1.586 2.022.46 3.915-.737 3.915h-.03c.348.174.663.749.663.749s1.257 2.191-1.068 2.796c.034.111 1.276.715 1.03 1.595-.244.879-1.776 1.413-1.776 1.413s.994.639.595 1.404c-.368.703-1.673 1.158-1.673 1.158l-9.016.013c-.224 0-.616-.564-1.092-.564-.129 0-.263.041-.404.148l-.658-11.002.306.008.141-.003c1.912-.093 4.087-3.728 4.239-4.715.141-.92.11-3.339.11-3.72 0-.295.131-1.182.971-1.182m0-1.514c-1.588 0-2.448 1.389-2.448 2.696l.002.191c.01 2.143-.046 2.975-.095 3.295-.198.827-2.006 3.396-2.849 3.437l-.071.002-.23-.007-1.651-.086.924 15.472 1.741-1.317c.249.179.602.374 1.064.374l9.018-.013h.244l.23-.081c.434-.151 1.901-.735 2.498-1.874.279-.531.326-1.073.216-1.577.473-.38.903-.886 1.085-1.541.169-.604.112-1.182-.168-1.73.174-.227.295-.455.379-.662.424-1.04.16-2.075-.082-2.683.197-.229.368-.491.503-.778.659-1.412.375-3.118-.76-4.565l-.426-.543-.681-.021c-.446-.015-1.186-.022-2.196-.022l-1.717.005c.116-.659.179-1.36.085-1.938l-.019-.113c-.209-1.306-.702-4.366-3.022-5.508-.563-.278-1.077-.413-1.572-.413" fill="#fff" sketch:type="MSShapeGroup"/><path d="M14.342 45.514c.246 0 .552.076.933.264 1.683.828 2.047 3.428 2.222 4.504.176 1.076-.547 3.219-.547 3.219s1.922-.02 3.637-.02c.858 0 1.664.005 2.152.02 1.586 2.022.46 3.915-.737 3.915h-.03c.348.174.663.749.663.749s1.257 2.191-1.068 2.796c.034.111 1.276.715 1.03 1.595-.244.879-1.776 1.413-1.776 1.413s.994.639.595 1.404c-.368.703-1.673 1.158-1.673 1.158l-9.016.013c-.224 0-.616-.564-1.092-.564-.129 0-.263.041-.404.148l-.658-11.002.306.008.141-.003c1.912-.093 4.087-3.728 4.239-4.715.141-.92.11-3.339.11-3.72 0-.295.131-1.182.971-1.182m0-1.514c-1.588 0-2.448 1.389-2.448 2.696l.002.191c.01 2.143-.046 2.975-.095 3.295-.198.827-2.006 3.396-2.849 3.437l-.071.002-.23-.007-1.651-.086.924 15.472 1.741-1.317c.249.179.602.374 1.064.374l9.018-.013h.244l.23-.081c.434-.151 1.901-.735 2.498-1.874.279-.531.326-1.073.216-1.577.473-.38.903-.886 1.085-1.541.169-.604.112-1.182-.168-1.73.174-.227.295-.455.379-.662.424-1.04.16-2.075-.082-2.683.197-.229.368-.491.503-.778.659-1.412.375-3.118-.76-4.565l-.426-.543-.681-.021c-.446-.015-1.186-.022-2.196-.022l-1.717.005c.116-.659.179-1.36.085-1.938l-.019-.113c-.209-1.306-.702-4.366-3.022-5.508-.563-.278-1.077-.413-1.572-.413" fill="#67737B" sketch:type="MSShapeGroup"/><path d="M14.342 5.514c.246 0 .552.076.933.264 1.683.828 2.047 3.428 2.222 4.504.176 1.076-.547 3.219-.547 3.219s1.922-.02 3.637-.02c.858 0 1.664.005 2.152.02 1.586 2.022.46 3.915-.737 3.915h-.03c.348.174.663.749.663.749s1.257 2.191-1.068 2.796c.034.111 1.276.715 1.03 1.595-.244.879-1.776 1.413-1.776 1.413s.994.639.595 1.404c-.368.703-1.673 1.158-1.673 1.158l-9.016.013c-.224 0-.616-.564-1.092-.564-.129 0-.263.041-.404.148l-.658-11.002.306.008.141-.003c1.912-.093 4.087-3.728 4.239-4.715.141-.92.11-3.339.11-3.72 0-.295.131-1.182.971-1.182m0-1.514c-1.588 0-2.448 1.389-2.448 2.696l.002.191c.01 2.143-.046 2.975-.095 3.295-.198.827-2.006 3.396-2.849 3.437l-.071.002-.23-.007-1.651-.086.924 15.472 1.741-1.317c.249.179.602.374 1.064.374l9.018-.013h.244l.23-.081c.434-.151 1.901-.735 2.498-1.874.279-.531.326-1.073.216-1.577.473-.38.903-.886 1.085-1.541.169-.604.112-1.182-.168-1.73.174-.227.295-.455.379-.662.424-1.04.16-2.075-.082-2.683.197-.229.368-.491.503-.778.659-1.412.375-3.118-.76-4.565l-.426-.543-.681-.021c-.446-.015-1.186-.022-2.196-.022l-1.717.005c.116-.659.179-1.36.085-1.938l-.019-.113c-.209-1.306-.702-4.366-3.022-5.508-.563-.278-1.077-.413-1.572-.413" fill="#3A434E" sketch:type="MSShapeGroup"/></g></svg>
